X:6
T:Pavirtys unt A.zuolu.
R:
C:
H:
N:
A:
D:Zpoan Vtenz - "Gime. Nugalet"
O:
Z:<anamnese@laposte.net> -- http://anamnese.fr.st
M:4/4
L:1/4
Q:1/4=100
K:C
V:1
|z4 z4 | e2 d f e2 d B | c2 B3 A2 E2 | A2 B2 e2 d B | c2 B2 A2 | 
V:2
|: e/2 A,/2 c/2 A,/2 c/2 A,/2 c/2 A,/2 | e/2 A,/2 c/2 A,/2 g/2 A,/2 c/2 A,/2 :|
|: e/2 A,/2 c/2 A,/2 c/2 A,/2 c/2 A,/2 | e/2 A,/2 c/2 A,/2 g/2 A,/2 c/2 A,/2 :|

